propusk-quiz/img/icons/about-card-icon-03.svg

<svg width="30" height="23" viewBox="0 0 30 23" fill="none" xmlns="http://www.w3.org/2000/svg">
<path d="M16.605 9.61502C17.5162 8.34191 18.0061 6.81559 18.0061 5.25002C18.0061 3.68445 17.5162 2.15812 16.605 0.885018C17.4578 0.302951 18.4675 -0.00573124 19.5 1.78333e-05C20.8924 1.78334e-05 22.2277 0.553142 23.2123 1.53771C24.1969 2.52227 24.75 3.85763 24.75 5.25002C24.75 6.6424 24.1969 7.97776 23.2123 8.96233C22.2277 9.94689 20.8924 10.5 19.5 10.5C18.4675 10.5058 17.4578 10.1971 16.605 9.61502ZM5.25 5.25002C5.25 4.21167 5.55791 3.19663 6.13478 2.33327C6.71166 1.46992 7.5316 0.797011 8.49091 0.399651C9.45022 0.00229046 10.5058 -0.101677 11.5242 0.100895C12.5426 0.303468 13.4781 0.803482 14.2123 1.53771C14.9465 2.27193 15.4466 3.20739 15.6491 4.22579C15.8517 5.24419 15.7477 6.29979 15.3504 7.25911C14.953 8.21842 14.2801 9.03836 13.4167 9.61523C12.5534 10.1921 11.5384 10.5 10.5 10.5C9.10761 10.5 7.77226 9.94689 6.78769 8.96233C5.80312 7.97776 5.25 6.6424 5.25 5.25002ZM8.25 5.25002C8.25 5.69503 8.38196 6.13004 8.62919 6.50005C8.87643 6.87006 9.22783 7.15845 9.63896 7.32875C10.0501 7.49904 10.5025 7.5436 10.939 7.45678C11.3754 7.36997 11.7763 7.15568 12.091 6.84101C12.4057 6.52634 12.62 6.12543 12.7068 5.68897C12.7936 5.25251 12.749 4.80011 12.5787 4.38898C12.4084 3.97785 12.12 3.62644 11.75 3.37921C11.38 3.13198 10.945 3.00002 10.5 3.00002C9.90326 3.00002 9.33097 3.23707 8.90901 3.65903C8.48705 4.08098 8.25 4.65328 8.25 5.25002ZM21 19.5V22.5H0V19.5C0 19.5 0 13.5 10.5 13.5C21 13.5 21 19.5 21 19.5ZM18 19.5C17.79 18.33 16.005 16.5 10.5 16.5C4.995 16.5 3.105 18.465 3 19.5M20.925 13.5C21.8444 14.2151 22.596 15.1228 23.1273 16.1593C23.6585 17.1959 23.9564 18.3361 24 19.5V22.5H30V19.5C30 19.5 30 14.055 20.91 13.5H20.925Z" fill="black"/>
</svg>

<svg width="30" height="23" fill="none" xmlns="http://www.w3.org/2000/svg"><path d="M16.605 9.615a7.5 7.5 0 000-8.73A5.085 5.085 0 0119.5 0a5.25 5.25 0 010 10.5 5.084 5.084 0 01-2.895-.885zM5.25 5.25a5.25 5.25 0 1110.5 0 5.25 5.25 0 01-10.5 0zm3 0a2.25 2.25 0 104.5 0 2.25 2.25 0 00-4.5 0zM21 19.5v3H0v-3s0-6 10.5-6 10.5 6 10.5 6zm-3 0c-.21-1.17-1.995-3-7.5-3s-7.395 1.965-7.5 3m17.925-6a7.98 7.98 0 013.075 6v3h6v-3s0-5.445-9.09-6h.015z" fill="#000"/></svg>
